X: 11683
T: Eilish's Beanie Kids
R: jig
M: 6/8
K: Aminor
|:EAc BcA|edB ABG|EAc BcA|edB A3|
EAc BcA|edB ABG|A3 c2e|dBG A3:|
|:EAc deg|age dBG|EAc deg|eag a3|
EAc deg|age dBG|A3 c2e|dBG A2G:|

